archdroid-icon-theme/Archdroid-DeepPurple/apps/scalable/gnome-panel-window-list.svg

<?xml version="1.0" encoding="UTF-8" standalone="no"?>
<svg
   xmlns:dc="http://purl.org/dc/elements/1.1/"
   xmlns:cc="http://creativecommons.org/ns#"
   xmlns:rdf="http://www.w3.org/1999/02/22-rdf-syntax-ns#"
   xmlns:svg="http://www.w3.org/2000/svg"
   xmlns="http://www.w3.org/2000/svg"
   xmlns:sodipodi="http://sodipodi.sourceforge.net/DTD/sodipodi-0.dtd"
   xmlns:inkscape="http://www.inkscape.org/namespaces/inkscape"
   fill="#673AB7"
   width="48"
   height="48"
   viewBox="0 0 48 48"
   id="svg2"
   version="1.1"
   inkscape:version="0.91 r13725"
   sodipodi:docname="gnome-panel-window-list.svg">
  <metadata
     id="metadata10">
    <rdf:RDF>
      <cc:Work
         rdf:about="">
        <dc:format>image/svg+xml</dc:format>
        <dc:type
           rdf:resource="http://purl.org/dc/dcmitype/StillImage" />
        <dc:title />
      </cc:Work>
    </rdf:RDF>
  </metadata>
  <defs
     id="defs8" />
  <sodipodi:namedview
     pagecolor="#ffffff"
     bordercolor="#666666"
     borderopacity="1"
     objecttolerance="10"
     gridtolerance="10"
     guidetolerance="10"
     inkscape:pageopacity="0"
     inkscape:pageshadow="2"
     inkscape:window-width="1366"
     inkscape:window-height="713"
     id="namedview6"
     showgrid="false"
     inkscape:snap-bbox="true"
     inkscape:bbox-nodes="true"
     inkscape:zoom="4.646023410544434"
     inkscape:cx="3.290587391790154"
     inkscape:cy="20.13811812459142"
     inkscape:window-x="0"
     inkscape:window-y="30"
     inkscape:window-maximized="1"
     inkscape:current-layer="svg2"
     inkscape:object-paths="true"
     inkscape:snap-intersection-paths="true"
     inkscape:object-nodes="true"
     inkscape:snap-smooth-nodes="true"
     inkscape:snap-midpoints="true"
     inkscape:snap-nodes="false" />
  <path
     id="path4180"
     style="fill:#673AB7;fill-opacity:1"
     d="M 11.63671875,6 C 9.622173235416411,6 8,7.560999999999983 8,9.5 l 0,21 c 0,1.93899999999998 1.622173235416412,3.5 3.63671875,3.5 l 32.7265625,0 C 46.37782676458359,34 48,32.43899999999998 48,30.5 l 0,-21 C 48,7.560999999999983 46.37782676458358,6.000000000000001 44.36328125,6 L 11.63671875,6 Z M 12,10 44,10 44,30 12,30 12,10 Z M 0,18 0,38.5 C 0,40.439 1.622173235416398,42 3.63671875,42 L 36,42 36,38 4,38 4,18 0,18 Z" />
</svg>

<svg xmlns="http://www.w3.org/2000/svg" fill="#673AB7" viewBox="0 0 48 48"><path d="m11.637 6c-2.01 0-3.637 1.561-3.637 3.5v21c0 1.939 1.622 3.5 3.637 3.5h32.727c2.01 0 3.637-1.561 3.637-3.5v-21c0-1.939-1.622-3.5-3.637-3.5h-32.727m.363 4h32v20h-32v-20m-12 8v20.5c0 1.939 1.622 3.5 3.637 3.5h32.363v-4h-32v-20h-4"/></svg>
